X: 3951
T: Blackbird, The
R: hornpipe
M: 4/4
K: Dmajor
|:dc|B3G cABG|ABAG ABcA|dcde dcAF|GAGF D2DE|
FEFG A2 (3gfe|dcde dcAF|GAGF D2D2|D6:|
|:de|fede f2g2|abag fgaf|g3f gbaf|gagf d2de|
fede f2g2|abag fgaf|gagf d2d2|defg abag|
fgaf gage|f2ed c2 AB|c2 de defg|a4 A3G|
FGAB =c3e|d^cAF GAGF|D2D2 D2:|

